svgs/light/bug.svg

<svg xmlns="http://www.w3.org/2000/svg" viewBox="0 0 512 512"><!--! Font Awesome Pro 6.1.1 by @fontawesome - https://fontawesome.com License - https://fontawesome.com/license (Commercial License) Copyright 2022 Fonticons, Inc. --><path d="M160 96C160 42.98 202.1 0 256 0C309 0 352 42.98 352 96V99.56C352 115.3 339.3 128 323.6 128H188.4C172.7 128 160 115.3 160 99.56V96zM192 96H320C320 60.65 291.3 32 256 32C220.7 32 192 60.65 192 96zM36.69 100.7C42.93 94.44 53.07 94.44 59.31 100.7L138.6 180C155.8 167.4 177.1 160 200 160H312C334.9 160 356.2 167.4 373.4 180L452.7 100.7C458.9 94.44 469.1 94.44 475.3 100.7C481.6 106.9 481.6 117.1 475.3 123.3L395.1 202.6C408.6 219.8 416 241.1 416 264V272H496C504.8 272 512 279.2 512 288C512 296.8 504.8 304 496 304H416V320C416 350.2 407.6 378.4 393.1 402.5L475.3 484.7C481.6 490.9 481.6 501.1 475.3 507.3C469.1 513.6 458.9 513.6 452.7 507.3L373.7 428.4C344.5 460.1 302.6 480 256 480C209.4 480 167.5 460.1 138.3 428.4L59.31 507.3C53.07 513.6 42.94 513.6 36.69 507.3C30.44 501.1 30.44 490.9 36.69 484.7L118.9 402.5C104.4 378.4 96 350.2 96 319.1V303.1H16C7.164 303.1 0 296.8 0 287.1C0 279.2 7.164 271.1 16 271.1H96V263.1C96 241.1 103.4 219.8 116 202.6L36.69 123.3C30.44 117.1 30.44 106.9 36.69 100.7V100.7zM128 320C128 385.3 176.9 439.1 240 447V256C240 247.2 247.2 240 256 240C264.8 240 272 247.2 272 256V447C335.1 439.1 384 385.3 384 320V264C384 224.2 351.8 192 312 192H200C160.2 192 128 224.2 128 264V320z"/></svg>

<svg xmlns="http://www.w3.org/2000/svg" viewBox="0 0 512 512"><!--! Font Awesome Pro 6.4.2 by @fontawesome - https://fontawesome.com License - https://fontawesome.com/license (Commercial License) Copyright 2023 Fonticons, Inc. --><path d="M256 32c-35.3 0-64 28.7-64 64H320c0-35.3-28.7-64-64-64zM160 96c0-53 43-96 96-96s96 43 96 96v3.6c0 15.7-12.7 28.4-28.4 28.4H188.4c-15.7 0-28.4-12.7-28.4-28.4V96zM36.7 100.7c6.2-6.2 16.4-6.2 22.6 0L138.6 180c17.2-12.6 38.4-20 61.4-20H312c22.9 0 44.2 7.4 61.4 20l79.3-79.3c6.2-6.2 16.4-6.2 22.6 0s6.2 16.4 0 22.6L396 202.6c12.6 17.2 20 38.4 20 61.4v8h80c8.8 0 16 7.2 16 16s-7.2 16-16 16H416v16c0 30.2-8.4 58.4-22.9 82.5l82.2 82.2c6.2 6.2 6.2 16.4 0 22.6s-16.4 6.2-22.6 0l-79-79C344.5 460.1 302.6 480 256 480s-88.5-19.9-117.7-51.6l-79 79c-6.2 6.2-16.4 6.2-22.6 0s-6.2-16.4 0-22.6l82.2-82.2C104.4 378.4 96 350.2 96 320V304H16c-8.8 0-16-7.2-16-16s7.2-16 16-16H96v-8c0-22.9 7.4-44.2 20-61.4L36.7 123.3c-6.2-6.2-6.2-16.4 0-22.6zM128 320c0 65.3 48.9 119.1 112 127V256c0-8.8 7.2-16 16-16s16 7.2 16 16V447c63.1-7.9 112-61.7 112-127V288 264c0-39.8-32.2-72-72-72H200c-39.8 0-72 32.2-72 72v24 32z"/></svg>
